!! 00000] TT[
!!!OTL: Lian cheng bai nian
!!!ARE: Asia, China,ÿShaanxi
!! Ethnic Group: Han
!! MM, ZHONGGUA MINGE XUAN S.193
!!!SCT: C1291
!!!YEM: Copyright 1995, estate of Helmut Schaffrath.
**kern
*ICvox
*Ivox
*M2/4
*k[b-e-]
*B-:
{8.ff
16dd
16ff
16dd
8fff
=1
16ddd
16eee-
16ddd
16ccc
8.bb-
16gg
=2
8ccc
16ddd
16aa
16gg
16aa
16gg
16ff
=3
2dd}
=4
{8ff
16ff
16dd
8ff
16ff
16fff
=5
16.ddd
32fff
16ddd
16ccc
8bb-
16bb-
16gg
=6
8ddd
16ddd
16aa
16gg
16aa
16gg
16ff
=7
2dd}
=8
{16ff
16fff
16fff
16gg
4bb-
=9
8dd
16dd
16ff
4dd
=10
8cc
16cc
16dd
16fff
16ggg
16eee-
16ddd
=11
4.ccc}
{16ccc
16ddd
=12
16dd
16ff
16ff
16dd
8ff
16ff
16fff
=13
16ddd
16fff
16ddd
16ccc
4bb-}
=14
{16ccc
16ddd
16ddd
16fff
16ccc
16ddd
16aa
16gg
=15
8.ff
16gg
16bb-
16gg
16bb-
16ccc
=16
2ff}
==
!!!AGN: Xiaodiao. Bainian
!! Vorspiel, Nachspiel; Verzierungen
!!    Fuer Strophe 3. - 5. Melodievariante fuer einen Takt notiert
!!    Sonderzeichen: v.d. Sprache abgeleitetes Verlassen der Tonhoehe
!!    Pinyin-Text der ersten Strophe vorhanden!
!!!ONB: ESAC (Essen Associative Code) Database: CHINA
!!!AMT: simple duple
!!!AIN: vox
!!!EED: Helmut Schaffrath
!!!EEV: 1.0
*-
!!!OTL: Xiaoxiao chawuo aidundun
!!!ARE: Asia, China,ÿHubei, Yingshan
!! I, 441
!!!SCT: C1450
!!!YEM: Copyright 1995, estate of Helmut Schaffrath.
**kern
*ICvox
*Ivox
!! Mixed meters:  3/4; 4/4
*M4/4
*k[f#]
*G:
{8e
8e
4e
8g
8a
=1
1b}
=2
*M3/4
{8dd
8b
8a
8g
4a
=3
8dd
[4.b
4b]}
=4
*M4/4
{8dd
8dd
8b
8a
4g
8a
8g
=5
4g
2.e}
=6
{8dd
8e
16g
16a
[4.b
4b]
=7
8b
8dd
8a
8g
4g
4e
=8
2e]
4r}
==
!!!AGN: Shange, Tiange, Caichage
!!!ONB: ESAC (Essen Associative Code) Database: HUANG
!!!AMT: irregular
!!!AIN: vox
!!!EED: Helmut Schaffrath
!!!EEV: 1.0
*-
